X:1
T:La Bergamasca, Op. 14
T:La Bergamasca, Op. 14
T:Piano Accompaniment
T:Composed by Alfredo Carlo Piatti
T:Arranged by Kagami Covers
T:Public Domain. All Rights Reserved.
T:Public Domain. All Rights Reserved.
T:Public Domain. All Rights Reserved.
T:Public Domain. All Rights Reserved.
T:Public Domain. All Rights Reserved.
T:Public Domain. All Rights Reserved.
T:Public Domain. All Rights Reserved.
C:Composed by Alfredo Carlo Piatti
Z:Arranged by Kagami Covers
Z:Public Domain. All Rights Reserved.
%%score { 1 | 2 }
L:1/8
Q:1/4=124
M:6/8
K:A
V:1 bass nm="Piano" snm="Pno."
V:2 bass 
V:1
!p! z6 | z6 | z6 |!mf! [C,A,]2 [E,B,] [A,C]2 [B,D] |[K:treble] ([CE]3 [A,C]) z2 | %5
 [CA]2 [EB] [Ac]2 [Bd] | ([ce]3 [Ac]) z2 |!p! ([ce]3 [Ac]) z2 | %8
!ff! .[Ace] z2 .[Aca][K:bass] !fermata!z2 ||[M:4/4][Q:1/4=70]!p! [A,C]2 [A,C]2 [A,C]2 [A,C]2 | %10
 [G,D]2 [G,D]2 [G,D]2 [G,D]2 | [A,C]2 [A,C]2 [B,A]2 [B,A]2 | [B,A]2 [B,A]2 [B,G]2 [B,D]2 | %13
!pp! [A,C]2 [A,C]2 [A,C]2 [A,C]2 | [G,D]2 [G,D]2 [G,D]2 [G,D]2 | [A,C]2 [=G,C]2 [F,D]4 | %16
 [A,C]2 [G,D]2 [A,C]2 [A,C]2 | [G,D]2 [G,D]2 [A,C]2 [A,C]2 | [B,G]2 [B,G]2 [CA]2 [CA]2 | %19
 [G,D]2 [G,D]2 [A,=C]2 [A,C]2 | [_B,=C]2 [B,C]2"_cresc." [A,C]2 [C_E]2 | %21
 !fermata![_B,D]4 !fermata![A,=F]2 !fermata![B,E] !fermata!z ||[M:6/8][K:treble][Q:1/4=124]!f! z6 | %23
 [A,=F]2 [=C=G] [FA]2 [G_B] | ([A=c]3 [=FA]) z2 | [A=f]2 [=c=g] [fa]2 [g_b] | ([a=c']3 [=fa]) z2 | %27
 ([a=c']3 [=fa]) z2 |!ff! [ac']/=f'/[ac']/f'/[ac']/f'/ [ac']/f'/[ac']/f'/[ac']/f'/ | %29
 [a=c']/=f'/[ac']/f'/[ac']/f'/ [ac']/f'/[ac']/f'/[ac']/f'/ | [^gbe']2 z E2 z | ([A=c]3 [^FA]) z2 | %32
 [gbe'] z2 .E z2 | ([A=c]3 [FA]) z2 | [EG]/e/[EG]/e/[EG]/e/ [EG]/e/[EG]/e/[EG]/e/ | %35
 [EG]/e/[EG]/e/[EG]/e/ [EG]/e/[EG]/e/[EG]/e/ | [EG]/e/[EG]/e/[EG]/e/ [EG]/e/[EG]/e/[EG]/e/ | %37
 [EG]/e/[EG]/e/[EG]/e/ [EG]/e/[EG]/e/[EG]/e/ | !fermata![EGe]6 || !fermata!z6 || %40
[Q:1/4=120]!p! .[DA] z z4 | [CA] z z4 | .[B,G] z z4 | [A,A] z z4 | [B,FA] z2 [B,FA] z2 | %45
 [CEA] z z4 | [B,EG] z2 [B,EG] z2 | [CEA]6 | [DA] z2 [DA] z2 | [CA] z2 [CA] z2 | %50
 [B,G] z2 [B,G] z2 | [A,A] z2 [A,A] z2 | [B,FA] z z4 | [CEA] z z4 | [B,EG] z z4 | [CEA]3 !>![DF]3 | %56
 [CEA]3 !>![DF]3 | [CEA]3 !>![DF]3 | [CEA]3 !>![DF]3 | [CEA] z z4 | z6 | z6 | z6 | [FBd] z z4 | %64
 [EAc] z z4 | [DGB] z z4 | [CEA] z z4 | [A,D]3 !>![A,C]3 | [A,D]3 !>![A,C]3 | [A,D]3 !>![A,C]3 | %70
 [A,D]3 !>![A,C]3 | [B,F] z z4 | z3 B,3 | C3 D3 | E3 F3 |!f! [EAce] z z4 | e3 c2 A | F3 =F3 | %78
 E z2 [Bdg] z2 | [Aca] z !fermata!z4 | [d=f]3"_cresc." ([_Bd]3 | [A=c]3 [=FA]3 | [D=F]3 [D=G]3) | %83
 ([DA]3 B,3) |!p! ([CA]3 =G3) | (=G3 =F3) | (=F3 E3) | [=F,D] z z4 |!p! ([d=f]3"_cresc." [_Bd]3 | %89
 [A=c]3 [=FA]3 | [D=F]3 [=C=G]3) | !>![=CA]6 | ([=G=f]3 e3) | ([=Fe]3 d3) | ([Ed]3 c3) | %95
 [=Fd]3 !>![Aa]3- | [A-a]3 ([A-=g]3 | [Af]3) !>![Aa]3- | [A-a]3 [A=g]3 | [Af]2 z!p! [^Ac]2 z | %100
 [Bd] z2"_cresc." [ce] z2 | [df] z2 [e=g] z2 | [fa] z2 [=gb] z2 | [fa]3 !>![Aa]3- | %104
 [A-a]3 [A-=g]3 | [Af]3 !>![A-a]3 | [A-a]3 [A-=g]3 | [Af]2 z!p! [^Ac]2 z | [Bd] z2 [ce] z2 | %109
 [df] z2 [e=g] z2 | [fa] z2 [=gb] z2 |!f! [Aea] z z4 | z6 | z6 | z6 | z6 | z6 | z6 | z6 | %119
!pp! ([=FA]3 [_Bd]3 | [A=c]3 [=FA]3 | [D=F]3 [E=G]3 | [=FA]6) | ([=G,=F]3 E3) | ([=F,E]3 D3) | %125
 ([E,D]3 C3) | [=F,D]6 |!mf! [=FA]3 [Fd]3 | [=F=c]3 [=CA]3 | [=B,=F]3 [_B,=G]3 | [A,A]6 | %131
!f! [^DA]6 |!p! [E^G]6 |!f! [A^d]6 | [GBe]3 [A=ce]3 | [GBe]3 [A=ce]3 | [GBe]3 [=cea]3 | %137
 [Beg]3 [=cea]3 | [Beg]6 | z6 | z6 | z6 | z6 | z6 |!p! z6 | %145
"_rall.............................   a tempo"[Q:1/4=120] z6[Q:1/4=119] | %146
[Q:1/4=118]!p! [DEB][Q:1/4=117]"^.7" z[Q:1/4=117]"^.3" z4 |[Q:1/4=120] [CEA] z z4 | [Gd] z z4 | %149
 [Ac] z z4 | [B,FA] z2 [B,FA] z2 | [CEA] z z4 | [B,EG] z2 [B,EG] z2 | [CEA] z z4 | %154
 [DA] z2 [DA] z2 | [CA] z2 [CA] z2 | [B,A] z2 [B,A] z2 | [A,A] z2 [A,A] z2 | [B,FA] z z4 | %159
 [CEA] z z4 | [B,EG] z z4 | [CEA]3 !>![DF]3 | [CEA]3 !>![DF]3 | [CEA]3 !>![DF]3 | [CEA]3 !>![DF]3 | %165
 [CEA] z z4 | z4 x2 | z6 | z6 | [FBd] z z4 | [EAc] z z4 | [DGB] z z4 | [CA] z z4 | z3 !>![Aa]3- | %174
 [Aa]3 !>![Aa]3- | [Aa]3 !>![Aa]3- | [Aa]3 ((!>![Aa]3 | [Bb])) z z4 | z3 B,3 | C3 D3 | E3 F3 | %181
!f! [EAce] z z4 | e3 c2 A | F3 =F3 | E z2 [Bdg] z2 | [Acea] z2 =C z2 | =C2 z C2 z | (=CE=G) (CEG) | %188
 (=CE=G) (C=FA) | (=CE=G) (CEA) | (=F=Ge) (FGe) | (=F=Gd) (FGd) | (E=Gd) (EGd) | (E=Gd) (EGd) | %194
 (E=G=c) (EGc) | (D=F=c) (DFc) | (D=FB) (DFB) | (=CEc) (CE=G) | (=CE=G) (C=FA) | (=CE=G) (CEG) | %200
 (=CE=G) (CEA) | (=F=Ge) (FGe) | (=F=Gd) (FGd) | (E=Gd) (EGd) | (E=G=c) (EGc) | (D=F=c) (DFc) | %206
 (D=FB) (DFB) | [=CE=c]2 z!p! [Ee]2 z |"_cresc." [E^d]2 z [E=d]2 z | [E=c]2 z [EB]2 z | %210
 [EA]2 z [DAB]2 z |!f! [EGB]2 z!p! [A=f]2 z | [A=f]2 z [Af]2 z | [A=f]2 z [Af]2 z | %214
 [B,DG]2 z [B,DG]2 z | [=CA]2 z [EG]2 z |"_cresc." [EA]2 z [EB]2 z | [E=c]2 z [Ed]2 z | %218
 [Ee]2 z!f! [E=f]2 z | [Ee]2 z!p! [A=f]2 z | [A=f]2 z [Af]2 z | [B=f]2 z [Bf]2 z | %222
 [GBe]2 z [GBe]2 z | [A=ce]2 z [Ee]2 z |"_cresc." [Ee]2 z [Ee]2 z | [Ee]2 z [Ee]2 z | %226
 [Ee]2 z [=cd]2 z |!f! [=ce]2 z!p! [ce]3 | [Gde]3 [=G^Ae]3 | [A=f]3 [=ca]3 | [e=c']3 [db]3 | %231
 [=ca]3 E3 |"_cresc." ^D3 D3 | =C3 B,3 |!8vb(! A,3 =F,3 |!f! E,6!8vb)! | %236
"_rall.............................. a tempo"[Q:1/4=120] !>![B,=F]6 |[Q:1/4=118]"^.7" !>![B,=FA]6 | %238
[Q:1/4=117]"^.3" !>![B,=F^G]6 |[Q:1/4=120] [G,E] z z4 |!p! [DFA]6 | [CEA]6 | [B,DA]6 | [CEA]6 | %244
 [B,FA] z z4 | [CEA] z z4 | [B,EG] z z4 |!mf! ([CEA-]6 | [DA]6) | [CA]6 | [B,A]3 ^B,3 | %251
 [CA] z2"_cresc." e'3 | c'3 a3 | e3 c3 | A3 E3 |!ff! [FA]/=C/[FA]/C/[FA]/C/ [FA]/C/[FA]/C/[FA]/C/ | %256
 [FA]/=C/[FA]/C/[FA]/C/ [FA]/C/[FA]/C/[FA]/C/ | [FA]/=C/[FA]/C/[FA]/C/ [FA]/C/[FA]/C/[FA]/C/ | %258
 [FA]/=C/[FA]/C/[FA]/C/ [FA]/C/[FA]/C/[FA]/C/ | [=CFA] z z4 | z6 | z6 | z6 | z4 z!ff! [Aa] | %264
 ([=c=c']3 [Aa]2) [Aa] | ([=c=c']3 [Aa]2) [Aa] | ([=c=c']2 [Aa]) ([cc']2 [Aa]) | [ee']2 z e2 c | %268
 A2 E C2 A, | E,2 C, E,2 A, | C2 E A2 c | e2 z [ee']3 | %272
"^incalzando sempre (until piece end, crescendo & accelerando)........................................................."[Q:1/4=120]"_cresc." [dd']3[Q:1/4=124]"^.3" [cc']3[Q:1/4=120]"^.7"[Q:1/4=121]"^.4"[Q:1/4=122]"^.1"[Q:1/4=122]"^.9"[Q:1/4=123]"^.6"[Q:1/4=125][Q:1/4=125]"^.7"[Q:1/4=126]"^.4"[Q:1/4=127]"^.1"[Q:1/4=127]"^.9" | %273
[Q:1/4=128]"^.6" [Bb]3[Q:1/4=132]"^.9" [Aa]2[Q:1/4=135]"^.7" [Gg][Q:1/4=129]"^.3"[Q:1/4=130][Q:1/4=130]"^.7"[Q:1/4=131]"^.4"[Q:1/4=132]"^.1"[Q:1/4=133]"^.6"[Q:1/4=134]"^.3"[Q:1/4=135][Q:1/4=136]"^.4" | %274
[Q:1/4=137]"^.1" [Ff]3[Q:1/4=141]"^.4" [Ee]3[Q:1/4=137]"^.9"[Q:1/4=138]"^.6"[Q:1/4=139]"^.3"[Q:1/4=140][Q:1/4=140]"^.7"[Q:1/4=142]"^.1"[Q:1/4=142]"^.9"[Q:1/4=143]"^.6"[Q:1/4=144]"^.3"[Q:1/4=145] | %275
[Q:1/4=145]"^.7""^..........................................................................................................................................................................................." [^D^d]3[Q:1/4=150] [=D=d]3[Q:1/4=146]"^.4"[Q:1/4=147]"^.1"[Q:1/4=147]"^.9"[Q:1/4=148]"^.6"[Q:1/4=149]"^.3"[Q:1/4=150]"^.7"[Q:1/4=151]"^.4"[Q:1/4=152]"^.1"[Q:1/4=152]"^.9"[Q:1/4=153]"^.6" | %276
[Q:1/4=154]"^.3" [Cc]3[Q:1/4=158]"^.6" [B,B]3[Q:1/4=155][Q:1/4=155]"^.7"[Q:1/4=156]"^.4"[Q:1/4=157]"^.1"[Q:1/4=157]"^.9"[Q:1/4=159]"^.3"[Q:1/4=160][Q:1/4=160]"^.7"[Q:1/4=161]"^.4"[Q:1/4=162]"^.1" | %277
[Q:1/4=162]"^.9" [^A,^A]3[Q:1/4=167]"^.1" [=A,=A]3[Q:1/4=163]"^.6"[Q:1/4=164]"^.3"[Q:1/4=165][Q:1/4=165]"^.7"[Q:1/4=166]"^.4"[Q:1/4=167]"^.9"[Q:1/4=168]"^.6"[Q:1/4=169]"^.3"[Q:1/4=170][Q:1/4=170]"^.7" | %278
[Q:1/4=171]"^.4" [G,G]3[Q:1/4=175]"^.7" [F,F]3[Q:1/4=172]"^.1"[Q:1/4=172]"^.9"[Q:1/4=173]"^.6"[Q:1/4=174]"^.3"[Q:1/4=175][Q:1/4=176]"^.4"[Q:1/4=177]"^.1"[Q:1/4=177]"^.9"[Q:1/4=178]"^.6"[Q:1/4=179]"^.3" | %279
[Q:1/4=275] [E,E]3!fff! !>![Aca]3 | !>![Ada]3 !>![A^da]3 | [=dab]6 | [egb]6 | [eac']2 z [egb]2 z | %284
 [eac']2 z [egb]2 z | [eac']2 z4 | [cea]2 z4 | !fermata![CA]6 |] %288
V:2
!p! A,,,/A,,/A,,,/A,,/A,,,/A,,/ A,,,/A,,/A,,,/A,,/A,,,/A,,/ | %1
 A,,,/A,,/A,,,/A,,/A,,,/A,,/ A,,,/A,,/"_cresc."A,,,/A,,/A,,,/A,,/ | %2
 A,,,/A,,/A,,,/A,,/A,,,/A,,/ A,,,/A,,/A,,,/A,,/A,,,/A,,/ | %3
!mf! A,,,/A,,/A,,,/A,,/A,,,/A,,/ A,,,/A,,/A,,,/A,,/A,,,/A,,/ | %4
 A,,,/A,,/A,,,/A,,/A,,,/A,,/ A,,,/A,,/A,,,/A,,/A,,,/A,,/ | %5
 A,,,/A,,/A,,,/A,,/A,,,/A,,/ A,,,/A,,/A,,,/A,,/A,,,/A,,/ | %6
 A,,,/A,,/A,,,/A,,/A,,,/A,,/ A,,,/A,,/A,,,/A,,/A,,,/A,,/ | %7
!p! A,,,/A,,/A,,,/A,,/A,,,/A,,/ A,,,/A,,/A,,,/A,,/A,,,/A,,/ | %8
!ff! .[C,,C,] z2 .[A,,,A,,] !fermata!z2 ||[M:4/4]!p! [A,,E,]2 [A,,E,]2 [A,,E,]2 [A,,E,]2 | %10
 [A,,E,]2 [A,,E,]2 [A,,E,]2 [A,,E,]2 | [A,,E,]2 [A,,E,]2 [F,,^D,]2 [F,,D,]2 | %12
 [=F,,=D,]2 [F,,D,]2 [E,,D,]2 [E,,E,]2 |!pp! [A,,E,]2 [A,,E,]2 [A,,E,]2 [A,,E,]2 | %14
 [A,,E,]2 [A,,E,]2 [A,,E,]2 [A,,E,]2 | [A,,E,]2 [A,,E,]2 [D,,D,]4 | %16
 [E,,E,]2 [E,,E,]2 [A,,E,]2 [A,,E,]2 | [A,,E,]2 [A,,E,]2 [A,,E,]2 [A,,E,]2 | %18
 [A,,E,]2 [A,,E,]2 [A,,E,]2 [A,,E,]2 | [A,,E,]2 [A,,E,]2 [A,,E,]2 [A,,E,]2 | %20
 [=G,,E,]2 [G,,E,]2"_cresc." [=F,,=F,]2 [A,,^F,]2 | %21
 !fermata![_B,,=G,]4 !fermata!=C,2 !fermata!=C,, !fermata!z || %22
[M:6/8]!f! =F,,/=F,/F,,/F,/F,,/F,/ F,,/F,/F,,/F,/F,,/F,/ | %23
 =F,,/=F,/F,,/F,/F,,/F,/ F,,/F,/F,,/F,/F,,/F,/ | =F,,/=F,/F,,/F,/F,,/F,/ F,,/F,/F,,/F,/F,,/F,/ | %25
 =F,,/=F,/F,,/F,/F,,/F,/ F,,/F,/F,,/F,/F,,/F,/ | =F,,/=F,/F,,/F,/F,,/F,/ F,,/F,/F,,/F,/F,,/F,/ | %27
 E,,/E,/E,,/E,/E,,/E,/ E,,/E,/E,,/E,/E,,/E,/ |!ff! ^D,,/^D,/D,,/D,/D,,/D,/ D,,/D,/D,,/D,/D,,/D,/ | %29
 ^D,,/^D,/D,,/D,/D,,/D,/ D,,/D,/D,,/D,/D,,/D,/ | [E,,E,]2 z E,,2 z | [E,^D]6 | E, z2 .E,, z2 | %33
 [E,^D]6 | [E,,E,]6 | [E,E]3 [B,,B,]3 | [G,,G,]3 [E,,E,]3 | [B,,,B,,]3 [G,,,G,,]3 | %38
 !fermata![E,,,E,,]6 || !fermata!z6 ||!p! .F, z z4 | E, z z4 | .D, z z4 | C, z z4 | D, z2 D, z2 | %45
 E, z z4 | E, z2 E, z2 | A,,3 =G,3 | D, z2 D, z2 | E, z2 E, z2 | D, z2 D, z2 | C, z2 C, z2 | %52
 D, z z4 | E, z z4 | E,, z z4 | A,,3 !>!D,3 | A,,3 !>!D,3 | A,,3 !>!D,3 | A,,3 !>!D,3 | A,, z z4 | %60
 z6 | z6 | z6 | D, z z4 | E, z z4 | E, z z4 | A,, z z4 | F,3 !>!E,3 | F,3 !>!E,3 | F,3 !>!E,3 | %70
 F,3 !>!E,3 | D, z z4 | z6 | z6 | z6 |!f! [E,,E,] z z4 | E3 C2 A, | F,3 =F,3 | E, z2 [E,E] z2 | %79
 [A,,A,] z !fermata!z4 |!p!!p! (D,3"_cresc." E,3 | =F,3 =C,3 | D,3 _B,,3) | A,,6 |!p! [A,,E,]6 | %85
 [A,,D,A,]6 | [A,,C,=G,]6 | D, z z4 |!p! (A,,3"_cresc." _B,,3 | =C,3 ^C,3 | D,3 E,3) | !>!=F,6 | %92
 (A,,3 A,3) | (A,,3 A,3) | (A,,3 A,3) | [D,,-D,]3 !>![D,,-A,,]3 | [D,,-B,,]3 [D,,-^C,]3 | %97
 [D,,D,]3 !>![D,,-A,,]3 | [D,,-B,,]3 [D,,-C,]3 | [D,,D,]2 z!p! F,2 z | F, z2"_cresc." F, z2 | %101
 F, z2 =A, z2 | A, z2 A, z2 | D,3 (!>![D,,-A,,]3 | [D,,-B,,]3 [D,,-C,]3) | %105
 [D,,D,]3 (!>![D,,-A,,]3 | [D,,-B,,]3 [D,,-C,]3 | [D,,D,]2) z!p! F,2 z | F, z2 =A, z2 | %109
 A, z2 A, z2 | D, z2 =G, z2 |!f! C, z z4 | z6 | z6 | z6 | z6 | z6 | z6 | z6 |!pp! [D,,A,,]6 | %120
 [D,,A,,]6 | [D,,A,,]6 | [D,,A,,]6 | [D,,A,,]6 | [D,,A,,]6 | [D,,A,,]6 | [D,,A,,]6 | %127
!mf! =F,3 _B,3 | A,3 =F,3 | D,3 =C,3 | =F,,6 |!f! =F,6 |!p! E,6 |!f! =F,,6 | E,,3 A,3 | E,3 A,3 | %136
 E,3 [A,,A,]3 | [E,,E,]3 [A,,A,]3 | [E,,E,]6 | z6 | z6 | z6 | z6 | z6 | z3!p! (E,3 | F,3 ^^F,3 | %146
 G,) z z4 | A, z z4 | E, z z4 | A,, z z4 | D, z2 D, z2 | E, z z4 | E,, z2 E,, z2 | A,, z z4 | %154
 F, z2 F, z2 | E, z2 E, z2 | D, z2 D, z2 | C, z2 C, z2 | D, z z4 | E, z z4 | E,, z z4 | %161
 A,,3 !>!D,3 | A,,3 !>!D,3 | A,,3 !>!D,3 | A,,3 !>!D,3 | A,, z z4 | z6 | z6 | z6 | D, z z4 | %170
 E, z z4 | E, z z4 | A,, z z4 | [D,F,A,]3 [A,,C,E,A,]3 | [D,F,A,]3 [A,,C,E,A,]3 | %175
 [D,F,A,]3 [A,,C,E,A,]3 | [D,F,A,]3 [A,,C,E,A,]3 | [D,F,] z z4 | z6 | z6 | z6 |!f! [E,,E,] z z4 | %182
 E3 C2 A, | F,3 =F,3 | E, z2 [E,,E,] z2 | [A,,A,] z2 [=C,,=C,] z2 | [=C,,=C,]2 z [C,,C,]2 z | %187
 [=C,,=C,]2 z [C,,C,]2 z | [=C,,=C,]2 z [C,,C,]2 z | [=C,,=C,]2 z [C,,C,]2 z | %190
 [=C,,=C,]2 z [C,,C,]2 z | [=C,,=C,]2 z [C,,C,]2 z | [=C,,=C,]2 z [C,,C,]2 z | %193
 [=C,,=C,]2 z [C,,C,]2 z | [=C,,=C,]2 z [C,,C,]2 z | [=C,,=C,]2 z [C,,C,]2 z | %196
 [=C,,=C,]2 z [C,,C,]2 z | [=C,,=C,]2 z [C,,C,]2 z | [=C,,=C,]2 z [C,,C,]2 z | %199
 [=C,,=C,]2 z [C,,C,]2 z | [=C,,=C,]2 z [C,,C,]2 z | [=C,,=C,]2 z [C,,C,]2 z | %202
 [=C,,=C,]2 z [C,,C,]2 z | [=C,,=C,]2 z [C,,C,]2 z | [=C,,=C,]2 z [C,,C,]2 z | %205
 [=C,,=C,]2 z [C,,C,]2 z | [=C,,=C,]2 z [C,,C,]2 z | [=C,,=C,]2 z!p! ^G,,2 z | %208
"_cresc." A,,2 z B,,2 z | =C,2 z D,2 z | E,2 z =F,2 z |!f! E,2 z!p! D,2 z | D,2 z D,2 z | %213
 D,2 z D,2 z | E,2 z E,2 z | A,,2 z [E,E]2 z |"_cresc." [E,^D]2 z [E,=D]2 z | [E,=C]2 z [E,B,]2 z | %218
 [E,A,]2 z!f! [E,B,]2 z | [E,G,]2 z!p! [D,D]2 z | D2 z D2 z | D2 z D2 z | E,2 z E,2 z | %223
 A,2 z G,,2 z |"_cresc." A,,2 z B,,2 z | =C,2 z D,2 z | E,2 z =F,2 z |!f! =C,2 z!p! A,,3 | %228
 B,,3 ^C,3 | D,3 ^D,3 | E,3 E,,3 | A,,3 E,3 |"_cresc." ^D,3 D,3 | =C,3 B,,3 | A,,3 =F,,3 | %235
!f! E,,6 | !>!D,6 | !>!D,6 | !>!D,6 | E, z z4 | z3!p! (E,,3 | A,,3 C,3) | E,6 | A,,6 | D, z z4 | %245
 E, z z4 | E,, z z4 |!mf! (A,,3 =G,3) | ([A,,F,]3 =F,3) | (A,,3 ^D,3) | [D,,D,]3 [^D,,^D,]3 | %251
 [E,,E,] z2[K:treble]"_cresc." e3 | c3 A3 | E3 C3 | A,3 E,3 | %255
!ff! ^D,,/^D,/D,,/D,/D,,/D,/ D,,/D,/D,,/D,/D,,/D,/ | %256
 ^D,,/^D,/D,,/D,/D,,/D,/ D,,/D,/D,,/D,/D,,/D,/ | ^D,,/^D,/D,,/D,/D,,/D,/ D,,/D,/D,,/D,/D,,/D,/ | %258
 ^D,,/^D,/D,,/D,/D,,/D,/ D,,/D,/D,,/D,/D,,/D,/ | [^D,,^D,] z z4 | z6 | z6 | z6 | %263
 z3!ff! [^D,A,=C]2 z | z3 [^D,A,=C]2 z | z3 [^D,A,=C]2 z | z3 [^D,A,=C]2 z | [E,A,^C]2 z E2 C | %268
 A,2 E, C,2 A,, | E,,2 C,, E,,2 A,, | C,2 E, A,2 C | E2 z E,,/E,/E,,/E,/E,,/E,/ | %272
"_cresc." E,,/E,/E,,/E,/E,,/E,/ E,,/E,/E,,/E,/E,,/E,/ | %273
 E,,/E,/E,,/E,/E,,/E,/ E,,/E,/E,,/E,/E,,/E,/ | E,,/E,/E,,/E,/E,,/E,/ E,,/E,/E,,/E,/E,,/E,/ | %275
 E,,/E,/E,,/E,/E,,/E,/ E,,/E,/E,,/E,/E,,/E,/ | E,,/E,/E,,/E,/E,,/E,/ E,,/E,/E,,/E,/E,,/E,/ | %277
 E,,/E,/E,,/E,/E,,/E,/ E,,/E,/E,,/E,/E,,/E,/ | E,,/E,/E,,/E,/E,,/E,/ E,,/E,/E,,/E,/E,,/E,/ | %279
 E,,3!fff! !>![=G,,=G,]3 | !>![F,,F,]3 !>![=F,,=F,]3 | [E,,E,]6 | [E,,E,]6 | %283
 [A,,A,]2 z [E,,E,]2 z | [A,,A,]2 z [E,,E,]2 z | [A,,A,]2 z4 | [A,,C,E,A,]2 z4 | %287
 !fermata![A,,,A,,]6 |] %288

